X:1
T:Thatcher, SM
T:Thatcher, SM
T:Arranged from George Frederick Handel, 1732
T:Public Domain Courtesy of the Cyber Hymnal™
C:Arranged from George Frederick Handel, 1732
Z:Public Domain
Z:Courtesy of the Cyber Hymnal™
%%score ( 1 2 ) ( 3 4 )
L:1/8
M:3/4
K:G
V:1 treble 
V:2 treble 
V:3 bass 
V:4 bass 
V:1
 [DG]2 | ([DB]2 [FA]2) G2 | (d2 c2) [DB]2 | [DA]4 D2 | (G2 A2) [DB]2 | [CE]4 [CF]2 | [DG]4 [DG]2 | %7
 (d2 c2) [DB]2 | B2 A2 [DG]2 | (G2 F2) G2 | [FA]4 [DB]2 | d2 z [Ee]2 x | [DB]4 A2 | [B,G]4 |] %14
V:2
 x2 | x4 G2 | D4 x2 | x4 D2 | D4 x2 | x6 | x6 | D4 x2 | D4 x2 | D4 G2 | x6 | G3 (d2 F) | x4 (DC) | %13
 x4 |] %14
V:3
 [G,B,]2 | ([G,D]2 [D,C]2) [E,B,]2 | [F,A,]4 (G,B,) | [D,F,]4 F,2 | ([B,,G,]2 [A,,F,]2) [G,,G,]2 | %5
 [C,G,]2 [A,,A,]2 [D,A,]2 | [G,,B,]4 [G,B,]2 | [F,A,]4 G,2 | G,2 z [B,,G,]2 x | %9
 [A,,C]4 ([G,,B,][B,,D]) | [D,D]4 G,2 | G,4 [C,G,]2 | [D,G,]4 [D,F,]2 | [G,,G,]4 |] %14
V:4
 x2 | x6 | x4 G,2 | x4 (D,C,) | x6 | x6 | x6 | x4 G,2 | D,3 (F,2 C,) | x6 | x4 (G,=F,) | %11
 (E,2 B,,2) x2 | x6 | x4 |] %14

